images/xgg.svg

<svg height="250" viewBox="0 0 250 250" width="250" xmlns="http://www.w3.org/2000/svg"><path d="m46.527344 179.199219h156.125v-38.714844" fill="#e51838"/><path d="m148.0625 81.125h30.945312l11.398438 21.71875 11.632812-21.71875h30.042969l-20.503906 41.375 22.71875 41.902344h-31.640625l-16.910156-30.8125-2.453125.003906 5.734375 10.191406-11 20.617188h-31.347656l21.792968-41.636719" fill-rule="evenodd"/><path d="m59.386719 81.125v83.140625h-26.226563v-49.746094l10.671875-.027343.003907-2.199219-25.414063-.035157 14.746094-31.132812"/><path d="m125.199219 86.769531-14.0625 26.257813c.191406.164062.367187.324218.53125.484375 2.480469 2.429687 3.847656 5.769531 3.847656 9.40625 0 3.640625-1.367187 6.980469-3.847656 9.40625-1.425781 1.398437-3.824219 3.058593-7.148438 3.058593-1.859375 0-3.425781-.519531-4.699219-1.222656l-13.519531 25.238282c5.625 3.191406 12.0625 5.003906 18.90625 5.003906 21.953125 0 39.746094-18.640625 39.746094-41.636719 0-15.363281-7.9375-28.777344-19.753906-35.996094zm0 0"/><path d="m97.375 132.324219c-2.480469-2.425781-3.847656-5.769531-3.847656-9.40625s1.367187-6.976563 3.847656-9.40625c1.425781-1.394531 3.824219-3.058594 7.148438-3.058594 1.863281 0 3.4375.523437 4.710937 1.230469l13.902344-26.089844c-5.386719-2.855469-11.476563-4.46875-17.929688-4.46875-21.949219 0-39.746093 18.640625-39.746093 41.640625 0 15.011719 7.585937 28.164063 18.957031 35.492187l13.535156-25.402343c-.207031-.179688-.398437-.355469-.578125-.53125zm0 0"/></svg>

<!-- Generator: Adobe Illustrator 16.0.2, SVG Export Plug-In . SVG Version: 6.00 Build 0)  -->
<svg xmlns="http://www.w3.org/2000/svg" xmlns:xlink="http://www.w3.org/1999/xlink" width="250px" height="250px" viewBox="0 0 250 250" version="1.1">
<g id="surface1">
<path style=" stroke:none;fill-rule:nonzero;fill:rgb(89.803922%,9.411765%,21.960784%);fill-opacity:1;" d="M 46.527344 179.199219 L 202.652344 179.199219 L 202.652344 140.484375 "/>
<path style=" stroke:none;fill-rule:evenodd;fill:rgb(0%,0%,0%);fill-opacity:1;" d="M 148.0625 81.125 L 179.007812 81.125 L 190.40625 102.84375 L 202.039062 81.125 L 232.082031 81.125 L 211.578125 122.5 L 234.296875 164.402344 L 202.65625 164.402344 L 185.746094 133.589844 L 183.292969 133.59375 L 189.027344 143.785156 L 178.027344 164.402344 L 146.679688 164.402344 L 168.472656 122.765625 "/>
<path style=" stroke:none;fill-rule:nonzero;fill:rgb(0%,0%,0%);fill-opacity:1;" d="M 59.386719 81.125 L 59.386719 164.265625 L 33.160156 164.265625 L 33.160156 114.519531 L 43.832031 114.492188 L 43.835938 112.292969 L 18.421875 112.257812 L 33.167969 81.125 "/>
<path style=" stroke:none;fill-rule:nonzero;fill:rgb(0%,0%,0%);fill-opacity:1;" d="M 125.199219 86.769531 L 111.136719 113.027344 C 111.328125 113.191406 111.503906 113.351562 111.667969 113.511719 C 114.148438 115.941406 115.515625 119.28125 115.515625 122.917969 C 115.515625 126.558594 114.148438 129.898438 111.667969 132.324219 C 110.242188 133.722656 107.84375 135.382812 104.519531 135.382812 C 102.660156 135.382812 101.09375 134.863281 99.820312 134.160156 L 86.300781 159.398438 C 91.925781 162.589844 98.363281 164.402344 105.207031 164.402344 C 127.160156 164.402344 144.953125 145.761719 144.953125 122.765625 C 144.953125 107.402344 137.015625 93.988281 125.199219 86.769531 Z M 125.199219 86.769531 "/>
<path style=" stroke:none;fill-rule:nonzero;fill:rgb(0%,0%,0%);fill-opacity:1;" d="M 97.375 132.324219 C 94.894531 129.898438 93.527344 126.554688 93.527344 122.917969 C 93.527344 119.28125 94.894531 115.941406 97.375 113.511719 C 98.800781 112.117188 101.199219 110.453125 104.523438 110.453125 C 106.386719 110.453125 107.960938 110.976562 109.234375 111.683594 L 123.136719 85.59375 C 117.75 82.738281 111.660156 81.125 105.207031 81.125 C 83.257812 81.125 65.460938 99.765625 65.460938 122.765625 C 65.460938 137.777344 73.046875 150.929688 84.417969 158.257812 L 97.953125 132.855469 C 97.746094 132.675781 97.554688 132.5 97.375 132.324219 Z M 97.375 132.324219 "/>
</g>
</svg>
